X: 497
T:Father Grady's Visit to Bockagh
C:Josie McDermott
S:B.Flaherty
M:4/4
L:1/8
R:reel
N:Posted to the woodenflute mailing list March 2002
Z:Bil
K: D
de|fdec A2-AG|EFGE ABde|fdec A2-AG|EFGE D2 de|
fdec A2-AG|EFGE ABde|f2 ed cAAG|EFGE D2 :|
FG|ABde f2 ge|dfed cAAG| G2-GA GE E2|edcA GEFG|
ABde f2 ge|dfed cA A2|f2-fa ge e2|fage d2 :|

